X:1
T:Title
%%score { ( 1 4 ) | ( 2 3 ) }
L:1/8
M:4/4
K:F
V:1 treble nm="Grand Piano"
V:4 treble 
V:2 bass 
V:3 bass 
V:1
 z4 z2[Q:1/4=100] AG | F2 F2 F2 FA | [EG]2 [EG]2 [EG]2 [GB]2 | A2 G2 [FA]2 [F=B]2 |[M:3/4] [Ec]6 | %5
[M:1/4] [GB]2 |[M:4/4] A2 A2 A2 FA | [EG]2 [EG]2 [EG]2 [GB]2 | [CFA]2 [DFB]G F2 E2 |[M:3/4] F6 | %10
[M:1/4] AG |[M:4/4] F3 F F>F FA | [EG]3 [EG] Ac c2 | c3 d c>A F2 |[M:3/4] GF [CA]G F2 |[M:1/4] AG | %16
[M:4/4] F3 F F>F FA | [EG]3 [EG] Ac c2 | c3 d c>A F2 |[M:3/4] GF [CA]G F2 |] %20
V:2
 z4 z2 .C2 | z4 z2 .[A,C]2 | [C,C]2 [C,C]2 [C,C]2 [C,C]2 | [F,CF]2 [E,C]2 [D,C]2 [G,D]2 | %4
[M:3/4] [C,C]6 |[M:1/4] [C,C]2 |[M:4/4] [F,CF]2 [F,CF]2 [F,CF]2 F,-[F,CF] | %7
 [C,C]2 [C,C]2 [C,C]2 [C,C]2 | F,2 z [B,D] [C,A,C]2 [C,G,C]2 |[M:3/4] [F,A,C]6 |[M:1/4] C z | %11
[M:4/4] z4 z2 .[A,C]2 | z4 .C2 z2 | [F,A,F]3 [F,B,F] [F,A,F]>[F,CF] [F,A,C]2 | %14
[M:3/4] [C,C]-[C,A,C] z B, [F,A,]2 |[M:1/4] C z |[M:4/4] z4 z2 .[A,C]2 | z4 .C2 z2 | %18
 [F,A,F]3 [F,B,F] [F,A,F]>[F,CF] [F,A,C]2 |[M:3/4] [C,C]-[C,A,C] z B, [F,A,]2 |] %20
V:3
 z4 z2 [F,F]-[F,B,F] | [F,A,C]2 [F,A,C]2 [F,A,C]2 F,-[F,CF] | x8 | x8 |[M:3/4] x6 |[M:1/4] x2 | %6
[M:4/4] z4 z2 .[A,C]2 | x8 | z2 B,,2 z4 |[M:3/4] x6 |[M:1/4] [F,F]-[F,B,F] | %11
[M:4/4] [F,A,C]3 [F,A,C] [F,A,C]>[F,A,C] F,-[F,CF] | [C,C]3 [C,C] [F,E]-[F,A,E] [F,A,F]2 | x8 | %14
[M:3/4] .B,2 C,2 z2 |[M:1/4] [F,F]-[F,B,F] |[M:4/4] [F,A,C]3 [F,A,C] [F,A,C]>[F,A,C] F,-[F,CF] | %17
 [C,C]3 [C,C] [F,E]-[F,A,E] [F,A,F]2 | x8 |[M:3/4] .B,2 C,2 z2 |] %20
V:4
 x8 | x8 | x8 | x8 |[M:3/4] x6 |[M:1/4] x2 |[M:4/4] x8 | x8 | x8 |[M:3/4] x6 |[M:1/4] x2 | %11
[M:4/4] x8 | x8 | x8 |[M:3/4] z2 E2 z2 |[M:1/4] x2 |[M:4/4] x8 | x8 | x8 |[M:3/4] z2 E2 z2 |] %20

